X:18447
T:Waltz,A. JMT.013
M:3/8
L:1/8
Q:30
S:J.Moore,Tyneside,1841. (09)
R:Waltz
O:England
A:Northumbria
H:184
Z:vmp.Chris Partington
K:G
G/B/|dd B/d/|ee g/e/|d d/B/c/A/|BG G/B/|dd B/d/|ee g/e/|d d/B/c/A/|G2:|!
|:g|f/a/ dd|g/b/ gg|f/a/ dd|g2G/B/|dd B/d/|ee g/e/|d d/B/c/A/|G2:|!
|:D|(G/F/G/)A/B/c/|ddB|ccA|BGD|(G/F/G/)A/B/c/|ddB|ccA|G2:|]


